dist/img/catalog/chars/fuel.svg

<svg width="18" height="20" viewBox="0 0 18 20" fill="none" xmlns="http://www.w3.org/2000/svg">
<path d="M17.123 4.965L17.1384 4.94917L13.3005 1.02779L12.2084 2.14667L14.3823 4.37388C13.4139 4.75388 12.7235 5.70917 12.7235 6.83333C12.7235 8.29 13.8774 9.47223 15.2993 9.47223C15.665 9.47223 16.0153 9.39304 16.3296 9.25054V16.8611C16.3296 17.4417 15.8659 17.9167 15.2993 17.9167C14.7326 17.9167 14.269 17.4417 14.269 16.8612V12.1112C14.269 10.9447 13.3469 10 12.2084 10H11.1781V2.61112C11.178 1.44471 10.2559 0.5 9.11747 0.5H2.93563C1.79711 0.5 0.875 1.44471 0.875 2.61112V19.5H11.178V11.5833H12.7235V16.8612C12.7235 18.3178 13.8774 19.5 15.2993 19.5C16.721 19.5 17.875 18.3178 17.875 16.8612V6.83333C17.8751 6.105 17.5866 5.44529 17.123 4.965ZM9.11747 7.88888H2.93563V2.61112H9.11747V7.88888ZM15.2993 7.88888C14.7326 7.88888 14.269 7.41388 14.269 6.83333C14.269 6.25279 14.7326 5.77779 15.2993 5.77779C15.8659 5.77779 16.3296 6.25279 16.3296 6.83333C16.3296 7.41388 15.8659 7.88888 15.2993 7.88888Z" fill="#0F0908"/>
</svg>

<svg width="18" height="20" viewBox="0 0 18 20" fill="none" xmlns="http://www.w3.org/2000/svg"><path d="M17.123 4.965l.015-.016L13.3 1.028l-1.092 1.119 2.174 2.227a2.634 2.634 0 00-1.659 2.46c0 1.456 1.154 2.638 2.576 2.638.366 0 .716-.079 1.03-.221v7.61c0 .58-.463 1.056-1.03 1.056-.566 0-1.03-.475-1.03-1.056v-4.75c0-1.166-.922-2.111-2.06-2.111h-1.03V2.611C11.177 1.445 10.255.5 9.116.5h-6.18C1.797.5.875 1.445.875 2.611V19.5h10.303v-7.917h1.545v5.278c0 1.457 1.154 2.639 2.576 2.639 1.422 0 2.576-1.182 2.576-2.639V6.833c0-.728-.288-1.388-.752-1.868zM9.117 7.889H2.936V2.61h6.181v5.28zm6.182 0c-.566 0-1.03-.475-1.03-1.056 0-.58.464-1.055 1.03-1.055.567 0 1.03.475 1.03 1.055S15.867 7.89 15.3 7.89z" fill="#0F0908"/></svg>
